assets/icons/telegram.svg

<svg fill="none" height="24" viewBox="0 0 24 24" width="24" xmlns="http://www.w3.org/2000/svg"><g opacity=".6" stroke="#64748b" stroke-linecap="round" stroke-linejoin="round" stroke-width="2"><path d="m8.25012 12.6443 8.42978 7.4182c.0975.0858.2157.1448.3429.1712.1272.0265.2591.0194.3827-.0205.1237-.0398.2348-.1112.3226-.2069.0878-.0958.1493-.2127.1783-.3393l3.5263-15.38747c.0305-.13304.0241-.27188-.0185-.40155-.0426-.12968-.1198-.24527-.2232-.33433-.1034-.08905-.2292-.1482-.3638-.17106-.1345-.02286-.2728-.00856-.3998.04135l-17.30223 6.79726c-.15079.0593-.27834.1657-.36358.3035-.08523.1378-.12356.2995-.10924.4609.01431.1613.0805.3137.18865.4344.10815.1206.25246.203.41133.2347z"/><path d="m8.25 12.6443 12.7605-9.21596"/><path d="m12.46 16.3491-2.92967 2.9297c-.10489.1049-.23853.1763-.38401.2053-.14549.0289-.29629.0141-.43333-.0427-.13705-.0568-.25418-.1529-.33659-.2762-.08241-.1234-.1264-.2684-.1264-.4167v-6.1042"/></g></svg>

<svg width="24" height="24" viewBox="0 0 24 24" fill="none" xmlns="http://www.w3.org/2000/svg">
<g opacity="0.6">
<path d="M8.25012 12.6443L16.6799 20.0625C16.7774 20.1483 16.8956 20.2073 17.0228 20.2337C17.15 20.2602 17.2819 20.2531 17.4055 20.2132C17.5292 20.1734 17.6403 20.102 17.7281 20.0063C17.8159 19.9105 17.8774 19.7936 17.9064 19.667L21.4327 4.27953C21.4632 4.14649 21.4568 4.00765 21.4142 3.87798C21.3716 3.7483 21.2944 3.63271 21.191 3.54365C21.0876 3.4546 20.9618 3.39545 20.8272 3.37259C20.6927 3.34973 20.5544 3.36403 20.4274 3.41394L3.12517 10.2112C2.97438 10.2705 2.84683 10.3769 2.76159 10.5147C2.67636 10.6525 2.63803 10.8142 2.65235 10.9756C2.66666 11.1369 2.73285 11.2893 2.841 11.41C2.94915 11.5306 3.09346 11.613 3.25233 11.6447L8.25012 12.6443Z" stroke="#64748B" stroke-width="2" stroke-linecap="round" stroke-linejoin="round"/>
<path d="M8.25 12.6443L21.0105 3.42834" stroke="#64748B" stroke-width="2" stroke-linecap="round" stroke-linejoin="round"/>
<path d="M12.46 16.3491L9.53033 19.2788C9.42544 19.3837 9.2918 19.4551 9.14632 19.4841C9.00083 19.513 8.85003 19.4982 8.71299 19.4414C8.57594 19.3846 8.45881 19.2885 8.3764 19.1652C8.29399 19.0418 8.25 18.8968 8.25 18.7485V12.6443" stroke="#64748B" stroke-width="2" stroke-linecap="round" stroke-linejoin="round"/>
</g>
</svg>
